usr/share/icons/big-icons/symbolic/actions/sqrt.svg

<svg xmlns="http://www.w3.org/2000/svg" viewBox="0 0 16 16">
  <defs id="defs3051">
    <style type="text/css" id="current-color-scheme">
      .ColorScheme-Text {
        color:#eff0f1;
      }
      </style>
  </defs>
 <path style="fill:currentColor;fill-opacity:1;stroke:none" 
     d="M 7.65625 3 L 7.53125 3.34375 L 4.90625 10.8125 L 3.4375 8.25 L 3.28125 8 L 3 8 L 2 8 L 2 9 L 2.71875 9 L 4.5625 12.25 L 5.09375 13.1875 L 5.46875 12.15625 L 8.34375 4 L 14 4 L 14 3 L 8 3 L 7.65625 3 z M 11 6 C 9.338 6 8 7.338 8 9 C 8 10.662 9.338 12 11 12 C 11.7733 12 12.46912 11.69593 13 11.21875 L 13 12 L 14 12 L 14 9 L 14 6 L 13 6 L 13 6.78125 C 12.46912 6.30407 11.7733 6 11 6 z M 11 7 C 12.108 7 13 7.892 13 9 C 13 10.108 12.108 11 11 11 C 9.892 11 9 10.108 9 9 C 9 7.892 9.892 7 11 7 z "
     class="ColorScheme-Text"
     />
</svg>

<svg xmlns="http://www.w3.org/2000/svg" viewBox="0 0 16 16">
<defs id="defs3051">
<style id="current-color-scheme" type="text/css">
.ColorScheme-Text{color:#fcfcfc}
</style>
</defs>
<path d="m7.656 3-.125.344-2.625 7.469L3.438 8.25 3.28 8H2v1h.719l1.844 3.25.53.938.376-1.032L8.344 4H14V3zM11 6C9.338 6 8 7.338 8 9s1.338 3 3 3c.773 0 1.47-.304 2-.781V12h1V6h-1v.781A2.98 2.98 0 0 0 11 6m0 1c1.108 0 2 .892 2 2s-.892 2-2 2-2-.892-2-2 .892-2 2-2" class="ColorScheme-Text" style="fill:currentColor;fill-opacity:1;stroke:none"/>
</svg>
